X: 31
T:Missa Pange lingua / Credo
N: Derived from Jos0403c-Missa_Pange_lingua-Credo.krn
C: Josquin des Prez
%%abc-version 2.0
%%abcx-abcm2ps-target-version 5.9.1 (29 Sep 2008)
%%abc-creator hum2abc beta
%%abcx-conversion-date 2019/02/12 16:15:39
%%abc-edited-by Jesse Rodin
%%abc-edited-by Will Watson 01/09/2011; Victoria Chang 04/09/2011
%%abcx-initial-encoding-date 2011/04/09/
%%humdrum-veritas 3795221932
%%humdrum-veritas-data 293413335
%%linebreak <none>
%%barnumbers 0
L: 1/4
M: 2/1
Q: 1/2=120
%%staves [1 2 3 4]
V: 1 clef=treble
V: 2 clef=treble-8
V: 3 clef=treble-8
V: 4 clef=bass
K: C
[V:1] z8 | 
[V:2] z8 | 
[V:3] E8 | 
[V:4] z8 | 
[V:1] z8 | 
[V:2] z8 | 
[V:3] E4E4 | 
[V:4] z8 | 
[V:1] z8 | 
[V:2] z8 | 
[V:3] F4E2F2- | 
[V:4] A,,8 | 
[V:1] z8 | 
[V:2] z8 | 
[V:3] F2EDE4 | 
[V:4] A,,4A,,4 | 
[V:1] z8 | 
[V:2] z8 | 
[V:3] D3EF2G2 | 
[V:4] _B,,4A,,2B,,2- | 
[V:1] z8 | 
[V:2] z8 | 
[V:3] D2G4^F2 | 
[V:4] B,,2A,,G,,A,,4 | 
[V:1] z8 | 
[V:2] z8 | 
[V:3] G8 | 
[V:4] G,,3A,,B,,2C,2 | 
[V:1] z8 | 
[V:2] z8 | 
[V:3] z4G4 | 
[V:4] G,,2C,4B,,2 | 
[V:1] z8 | 
[V:2] z8 | 
[V:3] G4A4 | 
[V:4] C,8 | 
[V:1] z8 | 
[V:2] z8 | 
[V:3] G2c3BA2- | 
[V:4] z4C,4 | 
[V:1] z8 | 
[V:2] z8 | 
[V:3] AGE2F4 | 
[V:4] C,4D,4 | 
[V:1] z8 | 
[V:2] z8 | 
[V:3] E2A3Gc2- | 
[V:4] C,2F,3E,A,2- | 
[V:1] z8 | 
[V:2] z8 | 
[V:3] cBd3ce2- | 
[V:4] A,G,F,E,F,2G,2 | 
[V:1] z8 | 
[V:2] z8 | 
[V:3] edc4B2 | 
[V:4] C,4D,4 | 
[V:1] E8 | 
[V:2] z8 | 
[V:3] c8- | 
[V:4] C,8- | 
[V:1] E4E4 | 
[V:2] z8 | 
[V:3] c8 | 
[V:4] C,8 | 
[V:1] F4E2F2- | 
[V:2] A8 | 
[V:3] z8 | 
[V:4] z8 | 
[V:1] F2EDE4 | 
[V:2] A4A4 | 
[V:3] z8 | 
[V:4] z8 | 
[V:1] D3EF2G2 | 
[V:2] _B4A2_B2- | 
[V:3] z8 | 
[V:4] z8 | 
[V:1] D2G4^F2 | 
[V:2] B2AGA4 | 
[V:3] z8 | 
[V:4] z8 | 
[V:1] G8 | 
[V:2] G3AB2c2 | 
[V:3] z8 | 
[V:4] z8 | 
[V:1] z4G4 | 
[V:2] G2c4B2 | 
[V:3] z8 | 
[V:4] z8 | 
[V:1] G4A4 | 
[V:2] c8 | 
[V:3] z8 | 
[V:4] z8 | 
[V:1] G2c3BA2- | 
[V:2] z4c4 | 
[V:3] z8 | 
[V:4] z8 | 
[V:1] AGE2F4 | 
[V:2] c4d4 | 
[V:3] z8 | 
[V:4] z8 | 
[V:1] E2A3Gc2- | 
[V:2] c2f3ea2- | 
[V:3] z8 | 
[V:4] z8 | 
[V:1] cBd3ce2- | 
[V:2] agfef2g2 | 
[V:3] z8 | 
[V:4] z8 | 
[V:1] edc4B2 | 
[V:2] c4d4 | 
[V:3] z8 | 
[V:4] z8 | 
[V:1] c4z4 | 
[V:2] c8- | 
[V:3] z8 | 
[V:4] z8 | 
[V:1] G6G2 | 
[V:2] c8 | 
[V:3] z8 | 
[V:4] C,6C,2 | 
[V:1] G2G2A4 | 
[V:2] c6c2 | 
[V:3] z8 | 
[V:4] C,2C,2F,4 | 
[V:1] G2E2F4 | 
[V:2] c2c2d4 | 
[V:3] z8 | 
[V:4] E,4D,4 | 
[V:1] E4A4 | 
[V:2] e6e2 | 
[V:3] c6c2 | 
[V:4] A,6G,F, | 
[V:1] G3ABcB2- | 
[V:2] e4d2g2 | 
[V:3] c2c2d4 | 
[V:4] E,2C,2G,4 | 
[V:1] BAA4^G2 | 
[V:2] f2e3de2 | 
[V:3] c2A2B4 | 
[V:4] A,4E,4 | 
[V:1] A8- | 
[V:2] c3AA4 | 
[V:3] A8- | 
[V:4] F,6D,2 | 
[V:1] A8 | 
[V:2] f6e2 | 
[V:3] A8 | 
[V:4] D,4F,4- | 
[V:1] z8 | 
[V:2] d2c2f3e | 
[V:3] z8 | 
[V:4] F,2E,2D,2C,2 | 
[V:1] z8 | 
[V:2] dcc4B2 | 
[V:3] z8 | 
[V:4] F,3E,D,4 | 
[V:1] c6B2 | 
[V:2] c8 | 
[V:3] z4c4- | 
[V:4] C,8 | 
[V:1] A2G2c3B | 
[V:2] z8 | 
[V:3] c2B2A2G2 | 
[V:4] z8 | 
[V:1] AGG4^F2 | 
[V:2] z8 | 
[V:3] c3BA4 | 
[V:4] z8 | 
[V:1] G4d4 | 
[V:2] z4B3c | 
[V:3] G8- | 
[V:4] z8 | 
[V:1] B2d3cBA | 
[V:2] d2d2d2d2 | 
[V:3] G8 | 
[V:4] z4G,4- | 
[V:1] B4d4 | 
[V:2] d4B4 | 
[V:3] z8 | 
[V:4] G,2G,2G,2G,2 | 
[V:1] c3BA4 | 
[V:2] c4d4 | 
[V:3] z8 | 
[V:4] A,4F,4 | 
[V:1] G4z4 | 
[V:2] e8- | 
[V:3] z4E3F | 
[V:4] E,3F,G,4 | 
[V:1] E3FG2G2 | 
[V:2] e8 | 
[V:3] G2G2G2G2 | 
[V:4] C,8 | 
[V:1] G2G2G2G2 | 
[V:2] z8 | 
[V:3] G4E4 | 
[V:4] z4C,4 | 
[V:1] F2D2d4 | 
[V:2] z8 | 
[V:3] F4G4 | 
[V:4] D,4B,,4 | 
[V:1] c8 | 
[V:2] e4f4 | 
[V:3] A8- | 
[V:4] A,,8- | 
[V:1] z2c2A2c2- | 
[V:2] e2e2e4- | 
[V:3] A8 | 
[V:4] A,,8 | 
[V:1] cBA3GGF | 
[V:2] e4d4 | 
[V:3] A4_B4 | 
[V:4] z8 | 
[V:1] A2c3BAG | 
[V:2] c3de2f2- | 
[V:3] A2A2A4- | 
[V:4] A,,3B,,C,2D,2- | 
[V:1] F4G3A | 
[V:2] fed3^c^cB | 
[V:3] A4G4 | 
[V:4] D,E,F,D,E,4 | 
[V:1] _B2A3GFE | 
[V:2] d8 | 
[V:3] F3GA2_B2- | 
[V:4] D,2F,3E,D,C, | 
[V:1] D4z2A2 | 
[V:2] z8 | 
[V:3] BAG3^F^FE | 
[V:4] D,2B,,2A,,4 | 
[V:1] B2G2d3B | 
[V:2] d4d2d2- | 
[V:3] G8 | 
[V:4] G,,8 | 
[V:1] B3GG4- | 
[V:2] d2d2d4 | 
[V:3] z2G4G2 | 
[V:4] G,4G,2G,2 | 
[V:1] G2FGE3C | 
[V:2] e4z4 | 
[V:3] G2G2G4 | 
[V:4] E,2C,3D,E,2 | 
[V:1] C4z2D2 | 
[V:2] e4f4 | 
[V:3] A4z4 | 
[V:4] A,,4D,4 | 
[V:1] EDEFGA_BG | 
[V:2] e2c2d3e | 
[V:3] A4_B4 | 
[V:4] C,3B,,G,,2G,,2 | 
[V:1] AGABcdec | 
[V:2] f2d2e4 | 
[V:3] A2F2G3A | 
[V:4] D,2D,2C,3B,, | 
[V:1] d4z2A2 | 
[V:2] d8 | 
[V:3] _B2G2A4 | 
[V:4] G,,4D,4 | 
[V:1] B3cd4 | 
[V:2] z2d2d2d2 | 
[V:3] G8 | 
[V:4] G,,4z2G,2 | 
[V:1] G4z2d2 | 
[V:2] e4d4 | 
[V:3] z2G2G2G2 | 
[V:4] E,2C,2G,4 | 
[V:1] d2A2B2c2 | 
[V:2] z2d2d2d2 | 
[V:3] A4G4 | 
[V:4] D,4z2G,2 | 
[V:1] d4B2d2 | 
[V:2] B3cd2B2 | 
[V:3] z2G2G2G2 | 
[V:4] G,2G,2G,,4 | 
[V:1] c4B4 | 
[V:2] c2e3ddc | 
[V:3] E3FG4 | 
[V:4] A,,4G,,4 | 
[V:1] z4z2B2 | 
[V:2] e4z2e2 | 
[V:3] z2E2F2G2 | 
[V:4] z2C,2D,2E,2 | 
[V:1] c3BG2A2- | 
[V:2] c2d2e4 | 
[V:3] A4z2A2 | 
[V:4] A,,4z2A,,2 | 
[V:1] AGG4^F2 | 
[V:2] d8 | 
[V:3] F2G2A4 | 
[V:4] B,,2G,,2D,4 | 
[V:1] G8 | 
[V:2] z4B3c | 
[V:3] G8- | 
[V:4] G,,8- | 
[V:1] z4B3c | 
[V:2] d2e2d4 | 
[V:3] G8 | 
[V:4] G,,8 | 
[V:1] d2e2d4 | 
[V:2] G2c2B2G2 | 
[V:3] z8 | 
[V:4] z8 | 
[V:1] G2c2B2G2 | 
[V:2] c2A2G2cd | 
[V:3] z8 | 
[V:4] z8 | 
[V:1] c2B2G2dc | 
[V:2] efg3fd2- | 
[V:3] z8 | 
[V:4] z8 | 
[V:1] BAA4^G2 | 
[V:2] dcA2B4 | 
[V:3] z8 | 
[V:4] z8 | 
[V:1] A4D2d2 | 
[V:2] A2D2d2B2 | 
[V:3] z8 | 
[V:4] z8 | 
[V:1] B2G2c3B | 
[V:2] G2c3BAG | 
[V:3] z8 | 
[V:4] z8 | 
[V:1] AGG4^F2 | 
[V:2] F2G2A4 | 
[V:3] z8 | 
[V:4] z8 | 
[V:1] G2d2e2d2- | 
[V:2] G8 | 
[V:3] z8 | 
[V:4] G,4C,2G,2- | 
[V:1] d2B2c2d2 | 
[V:2] d4e2d2- | 
[V:3] G4G2G2- | 
[V:4] G,2G,,2C,2B,,2 | 
[V:1] B4z4 | 
[V:2] d2B2c2d2 | 
[V:3] G2G2E2F2 | 
[V:4] G,,4z4 | 
[V:1] d2d2e2d2- | 
[V:2] B4z4 | 
[V:3] G4z4 | 
[V:4] z2G,,2C,2B,,2 | 
[V:1] d2B2c2d2 | 
[V:2] d2d2e2d2- | 
[V:3] G2G2G2G2- | 
[V:4] G,,2G,,2C,2B,,2 | 
[V:1] B2d2e2d2- | 
[V:2] d2B2c2d2 | 
[V:3] G2G2E2F2 | 
[V:4] G,,4z2D,2 | 
[V:1] dcBAB2G2- | 
[V:2] B2G2g3f | 
[V:3] G4G2G2 | 
[V:4] G,,2G,3F,E,D, | 
[V:1] GFEDE4 | 
[V:2] (3:2:6e3de2c3Bc2 | 
[V:3] G2G2E3F | 
[V:4] E,2C,2C,4 | 
[V:1] D8 ||  
[V:2] B8 ||  
[V:3] G8 ||  
[V:4] G,,8 ||  
[V:1] [M:2/1]E8 | 
[V:2] [M:2/1]c8 | 
[V:3] [M:2/1]G8 | 
[V:4] [M:2/1]C,8 | 
[V:1] E4E4 | 
[V:2] c4c4 | 
[V:3] A4A4 | 
[V:4] A,,4A,,4 | 
[V:1] F4F4 | 
[V:2] A6B2 | 
[V:3] F4F4 | 
[V:4] D,4D,4 | 
[V:1] !fermata!E8 | 
[V:2] !fermata!c8 | 
[V:3] !fermata!G8 | 
[V:4] !fermata!C,8 | 
[V:1] z4E4 | 
[V:2] z4c4 | 
[V:3] z4A4 | 
[V:4] z4A,,4 | 
[V:1] F4E4 | 
[V:2] d4c4 | 
[V:3] A4A4 | 
[V:4] D,4A,,4 | 
[V:1] F8 | 
[V:2] A8 | 
[V:3] F8 | 
[V:4] D,8 | 
[V:1] E8 | 
[V:2] c8 | 
[V:3] G8 | 
[V:4] C,8 | 
[V:1] !fermata!D8 | 
[V:2] !fermata!B8 | 
[V:3] !fermata!G8 | 
[V:4] !fermata!G,,8 | 
[V:1] G8 | 
[V:2] B8 | 
[V:3] G8 | 
[V:4] G,,8 | 
[V:1] G4G4- | 
[V:2] B4c4- | 
[V:3] G4E4- | 
[V:4] G,,4C,4- | 
[V:1] G4G4 | 
[V:2] c4B4 | 
[V:3] E4G4 | 
[V:4] C,4G,,4 | 
[V:1] A4B4 | 
[V:2] A4G4 | 
[V:3] F4D4 | 
[V:4] D,4B,,4 | 
[V:1] !fermata!c8 | 
[V:2] !fermata!A8 | 
[V:3] !fermata!E8 | 
[V:4] !fermata!A,,8 | 
[V:1] c8 | 
[V:2] e8 | 
[V:3] c8 | 
[V:4] A,8 | 
[V:1] A8 | 
[V:2] f8 | 
[V:3] c8 | 
[V:4] F,8 | 
[V:1] A8 | 
[V:2] f8 | 
[V:3] d8 | 
[V:4] D,8 | 
[V:1] B8- | 
[V:2] d8- | 
[V:3] B8- | 
[V:4] G,8- | 
[V:1] B4G4 | 
[V:2] d4e4 | 
[V:3] B4c4 | 
[V:4] G,4C,4 | 
[V:1] !fermata!G8 ||  
[V:2] !fermata!e8 ||  
[V:3] !fermata!c8 ||  
[V:4] !fermata!C,8 ||  
[V:1] [M:2/1]z8 | 
[V:2] [M:2/1]E4F4 | 
[V:3] [M:2/1]z8 | 
[V:4] [M:2/1]z8 | 
[V:1] E4F4 | 
[V:2] E4D4 | 
[V:3] z8 | 
[V:4] z8 | 
[V:1] E4D4 | 
[V:2] G6G2 | 
[V:3] z8 | 
[V:4] z8 | 
[V:1] G6G2 | 
[V:2] G3AB2c2- | 
[V:3] z8 | 
[V:4] z8 | 
[V:1] G3ABcd2- | 
[V:2] cdefg2f2- | 
[V:3] z8 | 
[V:4] z8 | 
[V:1] dcc4B2 | 
[V:2] fedcd4 | 
[V:3] z8 | 
[V:4] z8 | 
[V:1] c4z2c2 | 
[V:2] c8 | 
[V:3] z8 | 
[V:4] z8 | 
[V:1] c2c2A2c2 | 
[V:2] z2c2f2e2 | 
[V:3] z8 | 
[V:4] z8 | 
[V:1] B2A3^GG^F | 
[V:2] d2c2B4 | 
[V:3] z8 | 
[V:4] z8 | 
[V:1] A4z2A2- | 
[V:2] A4f4- | 
[V:3] z4d4- | 
[V:4] z4D,4- | 
[V:1] A2A2A2F2 | 
[V:2] f2f2f2f2 | 
[V:3] d2d2d2d2 | 
[V:4] D,2D,2D,2D,2 | 
[V:1] G4A4 | 
[V:2] e2c4BA | 
[V:3] c3BA4 | 
[V:4] E,4F,4 | 
[V:1] D8 | 
[V:2] B8- | 
[V:3] G4z2d2 | 
[V:4] G,8 | 
[V:1] z8 | 
[V:2] B4z2g2 | 
[V:3] d2d2B3G | 
[V:4] z2G,2G,2G,2 | 
[V:1] z8 | 
[V:2] g2g2e3c | 
[V:3] G4c3B | 
[V:4] E,3C,C,4 | 
[V:1] z8 | 
[V:2] c2d4c2 | 
[V:3] AGA4G2 | 
[V:4] F,6E,2 | 
[V:1] z4d4 | 
[V:2] B2A3^G^G^F | 
[V:3] F2E2D4 | 
[V:4] D,2C,2B,,4 | 
[V:1] c3BAGA2- | 
[V:2] A4A4 | 
[V:3] E4c4 | 
[V:4] A,,8 | 
[V:1] AGFEF2_B2 | 
[V:2] F3DD2d2 | 
[V:3] A4d4 | 
[V:4] z2D,2D,2_B,,2 | 
[V:1] A2G3^FFE | 
[V:2] e4d4- | 
[V:3] c3BA4 | 
[V:4] C,4D,4 | 
[V:1] G2D2G2A2 | 
[V:2] d4z4 | 
[V:3] G4z2D2 | 
[V:4] G,,4z4 | 
[V:1] B2c2d2G2 | 
[V:2] z8 | 
[V:3] G2A2B2c2 | 
[V:4] z8 | 
[V:1] z2d2d2d2 | 
[V:2] z8 | 
[V:3] d4G4 | 
[V:4] z2G,2B,2B,2 | 
[V:1] c3BA2G2 | 
[V:2] z8 | 
[V:3] z2c2c2c2 | 
[V:4] A,3G,F,2E,2 | 
[V:1] F4z2F2 | 
[V:2] z4z2d2 | 
[V:3] d3cB2A2 | 
[V:4] D,8 | 
[V:1] G3GG2G2 | 
[V:2] d3de2e2 | 
[V:3] G4z2G2 | 
[V:4] z2G,,2C,3C, | 
[V:1] G2G2G4 | 
[V:2] e2e2e4 | 
[V:3] c3cc2c2 | 
[V:4] C,2C,2C,2C,2 | 
[V:1] z2G2G2G2 | 
[V:2] z2e2e2e2 | 
[V:3] c2c2c2c2 | 
[V:4] C,4z2C,2 | 
[V:1] G6E2 | 
[V:2] e4z2e2 | 
[V:3] c2c2c2c2 | 
[V:4] C,2C,2C,4 | 
[V:1] F4G4 | 
[V:2] d4e4 | 
[V:3] A4B4 | 
[V:4] D,2F,2E,4 | 
[V:1] A4z4 | 
[V:2] c2e2f2e2- | 
[V:3] A4z4 | 
[V:4] A,,2A,2A,2G,2 | 
[V:1] z8 | 
[V:2] edd4^c2 | 
[V:3] z8 | 
[V:4] F,4E,4 | 
[V:1] z2A2B2A2- | 
[V:2] d8 | 
[V:3] z2d2d2c2 | 
[V:4] D,8 | 
[V:1] AGG4^F2 | 
[V:2] z4d4 | 
[V:3] B4A4 | 
[V:4] z4D,4 | 
[V:1] G4E3F | 
[V:2] B4c4- | 
[V:3] G8 | 
[V:4] G,,4C,4- | 
[V:1] G4G4 | 
[V:2] c4B4 | 
[V:3] E3FG4 | 
[V:4] C,4G,,4 | 
[V:1] z4G4 | 
[V:2] z4E4 | 
[V:3] G4G4 | 
[V:4] C,6B,,2 | 
[V:1] A4B4 | 
[V:2] C4D4 | 
[V:3] F4G4 | 
[V:4] A,,4G,,4 | 
[V:1] c8 | 
[V:2] E8 | 
[V:3] A8 | 
[V:4] C,8 | 
[V:1] B8 ||  
[V:2] D8 ||  
[V:3] G8 ||  
[V:4] G,,8 ||  
[V:1] [M:2/1]z8 | 
[V:2] [M:2/1]z8 | 
[V:3] [M:2/1]G6A2 | 
[V:4] [M:2/1]G,6F,2 | 
[V:1] z8 | 
[V:2] z8 | 
[V:3] B2c2d4 | 
[V:4] G,2E,2D,2G,2- | 
[V:1] z8 | 
[V:2] z8 | 
[V:3] G2A2B2c2 | 
[V:4] G,2F,2G,2E,2 | 
[V:1] z8 | 
[V:2] z8 | 
[V:3] d4z2d2 | 
[V:4] D,2G,2F,2D,2 | 
[V:1] z8 | 
[V:2] z8 | 
[V:3] c2A2c4 | 
[V:4] E,2F,3E,A,2- | 
[V:1] z8 | 
[V:2] z8 | 
[V:3] B4A2D2 | 
[V:4] A,^G,G,^F,A,4 | 
[V:1] z8 | 
[V:2] z8 | 
[V:3] E2F2G2A2 | 
[V:4] z2D,2E,2F,2 | 
[V:1] z8 | 
[V:2] z8 | 
[V:3] B2c2d2e2- | 
[V:4] G,2E,2F,2G,2 | 
[V:1] z8 | 
[V:2] z8 | 
[V:3] edd4^c2 | 
[V:4] A,2F,2E,4 | 
[V:1] z2A2A2A2 | 
[V:2] z2d2f2f2 | 
[V:3] d8 | 
[V:4] D,8 | 
[V:1] G2E2F2G2 | 
[V:2] e2c2d2B2 | 
[V:3] z8 | 
[V:4] z8 | 
[V:1] A2A4A2 | 
[V:2] A4f2f2 | 
[V:3] z2c4c2 | 
[V:4] z2F,4F,2 | 
[V:1] A2A2A4 | 
[V:2] f2f2f4 | 
[V:3] c2c2A3B | 
[V:4] F,2F,2F,4 | 
[V:1] G8 | 
[V:2] e4d4- | 
[V:3] c4z2B2- | 
[V:4] C,4G,4- | 
[V:1] z8 | 
[V:2] d2d2c2B2- | 
[V:3] B2A2G2F2 | 
[V:4] G,2F,2E,2D,2 | 
[V:1] z8 | 
[V:2] BAA4^G2 | 
[V:3] E4D4 | 
[V:4] C,4B,,4 | 
[V:1] z4c4- | 
[V:2] A8 | 
[V:3] E4A4- | 
[V:4] A,,8 | 
[V:1] c2B2A2G2 | 
[V:2] z8 | 
[V:3] A2G2F2E2 | 
[V:4] z8 | 
[V:1] F4E4 | 
[V:2] z8 | 
[V:3] D2d3^c^cB | 
[V:4] z8 | 
[V:1] D4A4- | 
[V:2] f6e2 | 
[V:3] d4z2A2- | 
[V:4] z4F,4- | 
[V:1] A2A2A2A2 | 
[V:2] c4d4 | 
[V:3] A2A2A2A2 | 
[V:4] F,2F,2F,2F,2 | 
[V:1] G4E4 | 
[V:2] e4e4 | 
[V:3] B4c4 | 
[V:4] E,4C,4 | 
[V:1] F4G4 | 
[V:2] d4B4 | 
[V:3] B2A3GGF | 
[V:4] D,4E,4 | 
[V:1] E4z2E2 | 
[V:2] c8 | 
[V:3] A3Bcde2- | 
[V:4] A,,8 | 
[V:1] F2F2E4 | 
[V:2] z4A4 | 
[V:3] edd4^c2 | 
[V:4] z8 | 
[V:1] D2D2E2F2 | 
[V:2] B2B2A4 | 
[V:3] d4z4 | 
[V:4] z8 | 
[V:1] G4z2G2 | 
[V:2] G2G2A2B2 | 
[V:3] z8 | 
[V:4] z8 | 
[V:1] G2G2A2B2 | 
[V:2] c4z2G2 | 
[V:3] z8 | 
[V:4] z8 | 
[V:1] c6BA | 
[V:2] c3de2f2 | 
[V:3] z8 | 
[V:4] z8 | 
[V:1] B3ABcd2- | 
[V:2] g6f2 | 
[V:3] z8 | 
[V:4] z8 | 
[V:1] dcc4B2 | 
[V:2] e4d4 | 
[V:3] z8 | 
[V:4] z8 | 
[V:1] c4z4 | 
[V:2] c4z4 | 
[V:3] z8 | 
[V:4] z8 | 
[V:1] [M:3/1]G4G4G4 | 
[V:2] [M:3/1]e4e4e4 | 
[V:3] [M:3/1]c4c4c4 | 
[V:4] [M:3/1]C,4C,4C,4 | 
[V:1] A8z4 | 
[V:2] f8z4 | 
[V:3] A4c4B4 | 
[V:4] F,6E,2D,4 | 
[V:1] z12 | 
[V:2] z12 | 
[V:3] A6^F2^G4 | 
[V:4] C,4D,4B,,4 | 
[V:1] c4c4c4 | 
[V:2] e4e4e4 | 
[V:3] A12 | 
[V:4] A,,12 | 
[V:1] A4c4B4 | 
[V:2] f6e2d4 | 
[V:3] z12 | 
[V:4] z12 | 
[V:1] A6^F2^G4 | 
[V:2] c4d4B4 | 
[V:3] z12 | 
[V:4] z12 | 
[V:1] A4c4c4 | 
[V:2] A4e4f4 | 
[V:3] z12 | 
[V:4] A,8A,4 | 
[V:1] B4c4A4 | 
[V:2] g4e4f4 | 
[V:3] z4c4c4 | 
[V:4] G,4A,4F,4 | 
[V:1] G4E4F4 | 
[V:2] d4e4d4 | 
[V:3] B4c4A4 | 
[V:4] G,4C,4D,4 | 
[V:1] [M:2/1]G4G4 | 
[V:2] [M:2/1]B3GG4 | 
[V:3] [M:2/1](3:2:2G8E4 | 
[V:4] [M:2/1](3E,6D,2C,4 | 
[V:1] z4A4 | 
[V:2] z8 | 
[V:3] (3G4^F6E2 | 
[V:4] (3:2:2B,,4A,,8 | 
[V:1] B6G2 | 
[V:2] d4e4- | 
[V:3] (3:2:1G12 | 
[V:4] (3:2:1G,,12 | 
[V:1] G3EE4 | 
[V:2] e2c2c3A | 
[V:3] (3:2:1z12 | 
[V:4] (3:2:1z12 | 
[V:1] A6A2 | 
[V:2] A4d4- | 
[V:3] (3:2:1z12 | 
[V:4] (3:2:1z12 | 
[V:1] A2A2F3D | 
[V:2] d2d2d2d2 | 
[V:3] (3:2:1z12 | 
[V:4] (3:2:1z12 | 
[V:1] D4G4- | 
[V:2] B3GG2B2 | 
[V:3] (3:2:1z12 | 
[V:4] (3:2:1z12 | 
[V:1] G2F2E4 | 
[V:2] c2d3^c^cB | 
[V:3] (3:2:1z12 | 
[V:4] (3:2:1z12 | 
[V:1] [M:2/1](3:2:1D12 | 
[V:2] d4z4 | 
[V:3] (3:2:1z12 | 
[V:4] (3D,4D,4D,4 | 
[V:1] (3:2:1z12 | 
[V:2] [M:2/1](3d4d4d4 | 
[V:3] (3:2:1z12 | 
[V:4] (3B,,6C,2D,4 | 
[V:1] (3:2:1z12 | 
[V:2] (3B6c2d4 | 
[V:3] (3G4G4G4 | 
[V:4] (3G,,6A,,2B,,4 | 
[V:1] (3G4G4G4 | 
[V:2] (3G4c4B4 | 
[V:3] (3E6F2G4 | 
[V:4] (3C,6D,2E,4 | 
[V:1] (3E6F2G4 | 
[V:2] (3c6d2e4 | 
[V:3] (3A4c4B4 | 
[V:4] (3A,,4A,4E,4 | 
[V:1] (3A4c6B2 | 
[V:2] (3c4f4e4 | 
[V:3] (3:2:2A8c4 | 
[V:4] (3F,6G,2A,4 | 
[V:1] (3:2:4A6^G2G2^F2 | 
[V:2] (3:2:2f4e8 | 
[V:3] (3:2:2d4B8 | 
[V:4] (3:2:2D,4E,8 | 
[V:1] [M:2/1]A4c4 | 
[V:2] [M:2/1]c3de4- | 
[V:3] [M:2/1]A4z2A2 | 
[V:4] [M:2/1]A,,8 | 
[V:1] B2c4BA | 
[V:2] e8 | 
[V:3] G2A2E2c2 | 
[V:4] z2A,,2C,3D, | 
[V:1] G2A2E4 | 
[V:2] e4z2e2- | 
[V:3] B2c4BA | 
[V:4] E,2A,,2C,3D, | 
[V:1] z4c4 | 
[V:2] edB2c3B | 
[V:3] G4A4 | 
[V:4] E,4A,,4 | 
[V:1] B2c4BA | 
[V:2] G2A2E4 | 
[V:3] E4z2c2 | 
[V:4] z2A,,2C,3D, | 
[V:1] G2A2E4 | 
[V:2] z4z2e2- | 
[V:3] B2c4BA | 
[V:4] E,2A,,2C,3D, | 
[V:1] z4E4 | 
[V:2] edB2c4 | 
[V:3] G4A4 | 
[V:4] E,4A,,4 | 
[V:1] G6E2 | 
[V:2] B8- | 
[V:3] E8- | 
[V:4] z4E,4 | 
[V:1] E8 |]  
[V:2] B8 |]  
[V:3] E8 |]  
[V:4] E,8 |]  



